assets/icons/qvision/directions_off.svg

<svg width="24" height="24" viewBox="0 0 24 24" fill="none" xmlns="http://www.w3.org/2000/svg">
<g clip-path="url(#clip0_147_5920)">
<path d="M9.41 6.58L12 4L20 12L17.42 14.59L18.83 16L21.41 13.41C22.19 12.63 22.19 11.36 21.41 10.58L13.41 2.58C12.63 1.8 11.36 1.8 10.58 2.58L8 5.17L9.41 6.58Z" fill="#323232"/>
<path d="M2.81014 2.81L1.39014 4.22L5.17014 8L2.59014 10.59C1.81014 11.37 1.81014 12.64 2.59014 13.42L10.5901 21.42C11.3701 22.2 12.6401 22.2 13.4201 21.42L16.0001 18.83L19.7801 22.61L21.1901 21.2L2.81014 2.81ZM12.0001 20L4.00014 12L6.58014 9.41L8.17014 11H7.00014V13H10.1701L11.6701 14.5L10.5901 15.59L12.0001 17L13.0901 15.91L14.5901 17.41L12.0001 20Z" fill="#323232"/>
<path d="M12.0054 6.99835L10.9165 8.08728L15.9157 13.0865L17.0046 11.9975L12.0054 6.99835Z" fill="#323232"/>
</g>
<defs>
<clipPath id="clip0_147_5920">
<rect width="24" height="24" fill="white"/>
</clipPath>
</defs>
</svg>

<svg xmlns="http://www.w3.org/2000/svg" enable-background="new 0 0 24 24" height="24" viewBox="0 0 24 24" width="24"><g><rect fill="none" height="24" width="24"/></g><g><g><path d="M12.83 10h.67V7.5L17 11l-1.59 1.59L18.83 16l2.59-2.59c.78-.78.78-2.05 0-2.83l-7.99-8c-.78-.78-2.05-.78-2.83 0L8 5.17 12.83 10zM2.81 2.81 1.39 4.22 5.17 8l-2.59 2.59c-.78.78-.78 2.05 0 2.83l8.01 8c.78.78 2.05.78 2.83 0L16 18.83l3.78 3.78 1.41-1.41L2.81 2.81zM10 15H8v-4c0-.05.02-.09.03-.14L10 12.83V15z"/></g></g></svg>
